src/images/icons/scroll-top.ver2.svg

<svg width="45" height="44" viewBox="0 0 45 44" fill="none" xmlns="http://www.w3.org/2000/svg">
<path fill-rule="evenodd" clip-rule="evenodd" d="M44.091 21.5909C44.091 33.5152 34.4244 43.1818 22.5001 43.1818C10.5758 43.1818 0.90918 33.5152 0.90918 21.5909C0.90918 9.66658 10.5758 0 22.5001 0C34.4244 0 44.091 9.66658 44.091 21.5909ZM33.5715 20.9741L23.5715 10.9741C22.9798 10.3824 22.0204 10.3824 21.4287 10.9741L11.4287 20.9741C10.837 21.5658 10.837 22.5251 11.4287 23.1168C12.0204 23.7085 12.9798 23.7085 13.5715 23.1168L20.985 15.7033V30.9091C20.985 31.7459 21.6633 32.4242 22.5001 32.4242C23.3369 32.4242 24.0153 31.7459 24.0153 30.9091V15.7034L31.4287 23.1168C32.0204 23.7085 32.9798 23.7085 33.5715 23.1168C34.1632 22.5251 34.1632 21.5658 33.5715 20.9741Z" fill="#CCCCCC"/>
</svg>

<svg xmlns="http://www.w3.org/2000/svg" width="45" height="44" fill="none" viewBox="0 0 45 44">
	<path fill="#CCC" fill-rule="evenodd" d="M44.091 21.59c0 11.925-9.667 21.592-21.59 21.592C10.575 43.182.908 33.515.908 21.59.91 9.667 10.576 0 22.5 0c11.924 0 21.591 9.667 21.591 21.59zm-10.52-.616-10-10a1.515 1.515 0 0 0-2.142 0l-10 10a1.515 1.515 0 1 0 2.143 2.143l7.413-7.414V30.91a1.515 1.515 0 1 0 3.03 0V15.703l7.414 7.414a1.515 1.515 0 0 0 2.143-2.143z" clip-rule="evenodd"/>
</svg>
